symbolic/64x64/apps/Ri-li.svg

<svg xmlns="http://www.w3.org/2000/svg" width="64" height="64" version="1">
 <rect style="opacity:0.2" width="56" height="56" x="4" y="5" rx="2.8" ry="2.8"/>
 <rect style="fill:#52845f" width="56" height="56" x="4" y="4" rx="2.8" ry="2.8"/>
 <path style="opacity:0.2" d="M 15.398828,21 C 13.577594,21 12,22.547212 12,24.39336 v 13.21396 c 0,1.846148 1.577733,3.415842 3.398828,3.39336 H 32 V 61 h 6 V 37.8 C 37.999846,36.253666 36.746334,35.000154 35.2,35 H 18 V 27 H 46 V 29.998828 37.20664 61 h 6 V 37.20664 29.998828 24.39336 C 52,22.547212 50.422406,21 48.601172,21 Z"/>
 <path style="fill:#fbc295" d="M 15.398828,20 C 13.577594,20 12,21.547212 12,23.39336 v 13.21396 c 0,1.846148 1.577733,3.415842 3.398828,3.39336 H 32 V 60 h 6 V 36.8 C 37.999846,35.253666 36.746334,34.000154 35.2,34 H 18 V 26 H 46 V 28.998828 36.20664 60 h 6 V 36.20664 28.998828 23.39336 C 52,21.547212 50.422406,20 48.601172,20 Z"/>
 <path style="opacity:0.2;fill:#ffffff" d="M 6.8007812 4 C 5.2495812 4 4 5.2495812 4 6.8007812 L 4 7.8007812 C 4 6.2495812 5.2495812 5 6.8007812 5 L 57.199219 5 C 58.750419 5 60 6.2495813 60 7.8007812 L 60 6.8007812 C 60 5.2495813 58.750419 4 57.199219 4 L 6.8007812 4 z"/>
 <path style="opacity:0.2;fill:#ffffff" d="M 15.398438 20 C 13.577203 20 12 21.548383 12 23.394531 L 12 24.394531 C 12 22.548383 13.577203 21 15.398438 21 L 48.601562 21 C 50.422796 21 52 22.548383 52 24.394531 L 52 23.394531 C 52 21.548383 50.422796 20 48.601562 20 L 15.398438 20 z M 18 34 L 18 35 L 35.199219 35 C 36.745553 35.000154 37.999846 36.254447 38 37.800781 L 38 36.800781 C 37.999846 35.254447 36.745553 34.000154 35.199219 34 L 18 34 z"/>
</svg>

<svg xmlns="http://www.w3.org/2000/svg" width="64" height="64" version="1"><rect style="opacity:.2" width="56" height="56" x="4" y="5" rx="2.8" ry="2.8"/><rect style="fill:#52845f" width="56" height="56" x="4" y="4" rx="2.8" ry="2.8"/><path style="opacity:.2" d="M15.399 21C13.578 21 12 22.547 12 24.393v13.214c0 1.846 1.578 3.416 3.399 3.394H32V61h6V37.8a2.8 2.8 0 0 0-2.8-2.8H18v-8h28v34h6V24.393C52 22.547 50.422 21 48.601 21z"/><path style="fill:#fbc295" d="M15.399 20C13.578 20 12 21.547 12 23.393v13.214c0 1.846 1.578 3.416 3.399 3.394H32V60h6V36.8a2.8 2.8 0 0 0-2.8-2.8H18v-8h28v34h6V23.393C52 21.547 50.422 20 48.601 20z"/><path style="opacity:.2;fill:#fff" d="M6.8 4C5.25 4 4 5.25 4 6.8v1C4 6.25 5.25 5 6.8 5h50.4C58.75 5 60 6.25 60 7.8v-1C60 5.25 58.75 4 57.2 4H6.8zM15.398 20C13.578 20 12 21.548 12 23.395v1C12 22.548 13.577 21 15.398 21h33.204C50.422 21 52 22.548 52 24.395v-1C52 21.548 50.423 20 48.602 20H15.398zM18 34v1h17.2c1.546 0 2.8 1.254 2.8 2.8v-1c0-1.546-1.254-2.8-2.8-2.8H18z"/></svg>
